(Exported by FreeCAD)
(Post Processor: grbl_post)
(Output Time:2026-04-27 19:36:42.865291)
(Begin preamble)
G17 G90
G21
(Begin operation: Fixture)
(Path: Fixture)
G54
(Finish operation: Fixture)
(Begin operation: TC: 3.175 1-Flute)
(Path: TC: 3.175 1-Flute)
(TC: 3.175 1-Flute)
(Begin toolchange)
( M6 T1 )
M3 S12000
(Finish operation: TC: 3.175 1-Flute)
(Begin operation: Drilling)
(Path: Drilling)
(Drilling)
(Begin Drilling)
G90
G0 Z5.000
( G98 )
G0 X38.101 Y19.051
G0 Z3.000
(G83 X38.101 Y19.051 Z-2.800 F150.000 Q0.400 R1.000)
G0 X38.101 Y19.051
G0 Z1.000
G0 Z1.020
G1 Z0.600 F150.00
G0 Z3.000
G0 Z0.620
G1 Z0.200 F150.00
G0 Z3.000
G0 Z0.220
G1 Z-0.200 F150.00
G0 Z3.000
G0 Z-0.180
G1 Z-0.600 F150.00
G0 Z3.000
G0 Z-0.580
G1 Z-1.000 F150.00
G0 Z3.000
G0 Z-0.980
G1 Z-1.400 F150.00
G0 Z3.000
G0 Z-1.380
G1 Z-1.800 F150.00
G0 Z3.000
G0 Z-1.780
G1 Z-2.200 F150.00
G0 Z3.000
G0 Z-2.180
G1 Z-2.600 F150.00
G0 Z3.000
G0 Z-2.580
G1 Z-2.800 F150.00
G0 Z3.000
G0 X76.201 Y19.051
(G83 X76.201 Y19.051 Z-2.800 F150.000 Q0.400 R1.000)
G0 X76.201 Y19.051
G0 Z1.000
G0 Z1.020
G1 Z0.600 F150.00
G0 Z3.000
G0 Z0.620
G1 Z0.200 F150.00
G0 Z3.000
G0 Z0.220
G1 Z-0.200 F150.00
G0 Z3.000
G0 Z-0.180
G1 Z-0.600 F150.00
G0 Z3.000
G0 Z-0.580
G1 Z-1.000 F150.00
G0 Z3.000
G0 Z-0.980
G1 Z-1.400 F150.00
G0 Z3.000
G0 Z-1.380
G1 Z-1.800 F150.00
G0 Z3.000
G0 Z-1.780
G1 Z-2.200 F150.00
G0 Z3.000
G0 Z-2.180
G1 Z-2.600 F150.00
G0 Z3.000
G0 Z-2.580
G1 Z-2.800 F150.00
G0 Z3.000
G0 X97.250 Y4.000
(G83 X97.250 Y4.000 Z-2.800 F150.000 Q0.400 R1.000)
G0 X97.250 Y4.000
G0 Z1.000
G0 Z1.020
G1 Z0.600 F150.00
G0 Z3.000
G0 Z0.620
G1 Z0.200 F150.00
G0 Z3.000
G0 Z0.220
G1 Z-0.200 F150.00
G0 Z3.000
G0 Z-0.180
G1 Z-0.600 F150.00
G0 Z3.000
G0 Z-0.580
G1 Z-1.000 F150.00
G0 Z3.000
G0 Z-0.980
G1 Z-1.400 F150.00
G0 Z3.000
G0 Z-1.380
G1 Z-1.800 F150.00
G0 Z3.000
G0 Z-1.780
G1 Z-2.200 F150.00
G0 Z3.000
G0 Z-2.180
G1 Z-2.600 F150.00
G0 Z3.000
G0 Z-2.580
G1 Z-2.800 F150.00
G0 Z3.000
G0 X57.151 Y57.151
(G83 X57.151 Y57.151 Z-2.800 F150.000 Q0.400 R1.000)
G0 X57.151 Y57.151
G0 Z1.000
G0 Z1.020
G1 Z0.600 F150.00
G0 Z3.000
G0 Z0.620
G1 Z0.200 F150.00
G0 Z3.000
G0 Z0.220
G1 Z-0.200 F150.00
G0 Z3.000
G0 Z-0.180
G1 Z-0.600 F150.00
G0 Z3.000
G0 Z-0.580
G1 Z-1.000 F150.00
G0 Z3.000
G0 Z-0.980
G1 Z-1.400 F150.00
G0 Z3.000
G0 Z-1.380
G1 Z-1.800 F150.00
G0 Z3.000
G0 Z-1.780
G1 Z-2.200 F150.00
G0 Z3.000
G0 Z-2.180
G1 Z-2.600 F150.00
G0 Z3.000
G0 Z-2.580
G1 Z-2.800 F150.00
G0 Z3.000
G0 X97.250 Y72.200
(G83 X97.250 Y72.200 Z-2.800 F150.000 Q0.400 R1.000)
G0 X97.250 Y72.200
G0 Z1.000
G0 Z1.020
G1 Z0.600 F150.00
G0 Z3.000
G0 Z0.620
G1 Z0.200 F150.00
G0 Z3.000
G0 Z0.220
G1 Z-0.200 F150.00
G0 Z3.000
G0 Z-0.180
G1 Z-0.600 F150.00
G0 Z3.000
G0 Z-0.580
G1 Z-1.000 F150.00
G0 Z3.000
G0 Z-0.980
G1 Z-1.400 F150.00
G0 Z3.000
G0 Z-1.380
G1 Z-1.800 F150.00
G0 Z3.000
G0 Z-1.780
G1 Z-2.200 F150.00
G0 Z3.000
G0 Z-2.180
G1 Z-2.600 F150.00
G0 Z3.000
G0 Z-2.580
G1 Z-2.800 F150.00
G0 Z3.000
( G80 )
G0 Z5.000
(Finish operation: Drilling)
(Begin operation: DressupTag)
(Path: DressupTag)
G0 Z5.000
G0 X144.123 Y77.323 Z5.000
G0 X144.123 Y77.323 Z3.000
G1 X144.123 Y77.323 Z-0.400 F150.000
G3 X143.000 Y77.787 Z-0.400 I-1.123 J-1.123 K0.000 F500.000
G1 X0.000 Y77.787 Z-0.400 F500.000
G3 X-1.588 Y76.200 Z-0.400 I-0.000 J-1.587 K0.000 F500.000
G1 X-1.587 Y0.000 Z-0.400 F500.000
G3 X0.000 Y-1.587 Z-0.400 I1.587 J-0.000 K0.000 F500.000
G1 X143.000 Y-1.587 Z-0.400 F500.000
G3 X144.587 Y0.000 Z-0.400 I0.000 J1.587 K0.000 F500.000
G1 X144.587 Y76.200 Z-0.400 F500.000
G3 X144.123 Y77.323 Z-0.400 I-1.587 J0.000 K0.000 F500.000
G1 X144.123 Y77.323 Z-0.800 F150.000
G3 X143.000 Y77.787 Z-0.800 I-1.123 J-1.123 K0.000 F500.000
G1 X0.000 Y77.787 Z-0.800 F500.000
G3 X-1.588 Y76.200 Z-0.800 I-0.000 J-1.587 K0.000 F500.000
G1 X-1.587 Y0.000 Z-0.800 F500.000
G3 X0.000 Y-1.587 Z-0.800 I1.587 J-0.000 K0.000 F500.000
G1 X143.000 Y-1.587 Z-0.800 F500.000
G3 X144.587 Y0.000 Z-0.800 I0.000 J1.587 K0.000 F500.000
G1 X144.587 Y76.200 Z-0.800 F500.000
G3 X144.123 Y77.323 Z-0.800 I-1.587 J0.000 K0.000 F500.000
G1 X144.123 Y77.323 Z-1.200 F150.000
G3 X143.000 Y77.787 Z-1.200 I-1.123 J-1.123 K0.000 F500.000
G1 X0.000 Y77.787 Z-1.200 F500.000
G3 X-1.588 Y76.200 Z-1.200 I-0.000 J-1.587 K0.000 F500.000
G1 X-1.587 Y0.000 Z-1.200 F500.000
G3 X0.000 Y-1.587 Z-1.200 I1.587 J-0.000 K0.000 F500.000
G1 X143.000 Y-1.587 Z-1.200 F500.000
G3 X144.587 Y0.000 Z-1.200 I0.000 J1.587 K0.000 F500.000
G1 X144.587 Y76.200 Z-1.200 F500.000
G3 X144.123 Y77.323 Z-1.200 I-1.587 J0.000 K0.000 F500.000
G1 X144.123 Y77.323 Z-1.600 F150.000
G3 X143.000 Y77.787 Z-1.600 I-1.123 J-1.123 K0.000 F500.000
G1 X0.000 Y77.787 Z-1.600 F500.000
G3 X-1.588 Y76.200 Z-1.600 I-0.000 J-1.587 K0.000 F500.000
G1 X-1.587 Y0.000 Z-1.600 F500.000
G3 X0.000 Y-1.587 Z-1.600 I1.587 J-0.000 K0.000 F500.000
G1 X143.000 Y-1.587 Z-1.600 F500.000
G3 X144.587 Y0.000 Z-1.600 I0.000 J1.587 K0.000 F500.000
G1 X144.587 Y76.200 Z-1.600 F500.000
G3 X144.123 Y77.323 Z-1.600 I-1.587 J0.000 K0.000 F500.000
G1 X144.123 Y77.323 Z-2.000 F150.000
G3 X143.000 Y77.787 Z-2.000 I-1.123 J-1.123 K0.000 F500.000
G1 X0.000 Y77.787 Z-2.000 F500.000
G3 X-1.588 Y76.200 Z-2.000 I-0.000 J-1.587 K0.000 F500.000
G1 X-1.587 Y0.000 Z-2.000 F500.000
G3 X0.000 Y-1.587 Z-2.000 I1.587 J-0.000 K0.000 F500.000
G1 X143.000 Y-1.587 Z-2.000 F500.000
G3 X144.587 Y0.000 Z-2.000 I0.000 J1.587 K0.000 F500.000
G1 X144.587 Y76.200 Z-2.000 F500.000
G3 X144.123 Y77.323 Z-2.000 I-1.587 J0.000 K0.000 F500.000
G1 X144.123 Y77.323 Z-2.400 F150.000
G3 X143.000 Y77.787 Z-2.400 I-1.123 J-1.123 K0.000 F500.000
G1 X0.000 Y77.787 Z-2.400 F500.000
G3 X-1.588 Y76.200 Z-2.400 I-0.000 J-1.587 K0.000 F500.000
G1 X-1.587 Y0.000 Z-2.400 F500.000
G3 X0.000 Y-1.587 Z-2.400 I1.587 J-0.000 K0.000 F500.000
G1 X143.000 Y-1.587 Z-2.400 F500.000
G3 X144.587 Y0.000 Z-2.400 I0.000 J1.587 K0.000 F500.000
G1 X144.587 Y76.200 Z-2.400 F500.000
G3 X144.123 Y77.323 Z-2.400 I-1.587 J0.000 K0.000 F500.000
G1 X144.123 Y77.323 Z-2.800 F150.000
G3 X143.000 Y77.787 Z-2.800 I-1.123 J-1.123 K0.000 F500.000
G1 X0.000 Y77.787 Z-2.800 F500.000
G3 X-1.588 Y76.200 Z-2.800 I-0.000 J-1.587 K0.000 F500.000
G1 X-1.587 Y0.000 Z-2.800 F500.000
G3 X0.000 Y-1.587 Z-2.800 I1.587 J-0.000 K0.000 F500.000
G1 X143.000 Y-1.587 Z-2.800 F500.000
G3 X144.587 Y0.000 Z-2.800 I0.000 J1.587 K0.000 F500.000
G1 X144.587 Y76.200 Z-2.800 F500.000
G3 X144.123 Y77.323 Z-2.800 I-1.587 J0.000 K0.000 F500.000
G0 X144.123 Y77.323 Z5.000
(Finish operation: DressupTag)
(Begin postamble)
M5
G17 G90
M2
